X:1
T:Title
%%score { 1 | 2 }
L:1/8
Q:1/4=100
M:4/4
K:G
V:1 treble nm="Grand Piano"
V:2 bass 
V:1
 [DB]3 [CA] [Ec]2 [DB]2 | A2 G2 E2 [EG]2 | D2 [B,G]2 A2 D2 | B6 z2 | [DB]3 [CA] [Ec]2 [DB]2 | %5
w: W.~H.~Gristweit * * *|||||
 A2 G2 E2 [EG]2 | D2 G2 B2 A2 | [B,DG]6 z2 | .[FA]2 .[FA]2 [Fc]2 z2 | .B2 .B2 d2 z2 | e2 d2 c2 B2 | %11
w: ||||||
 [FA]6 z2 | B3 A c2 B2 | [EA]2 [EG]2 [G,CE]2 [G,EG]2 | [G,B,D]2 [B,DG]2 [DGB]2 [CFA]2 | %15
w: ||||
 [G,B,DG]6 z2 |] %16
w: |
V:2
 [G,,G,]3 [G,,G,] [G,,G,]2 [G,,G,]2 | [C,E,C]2 [C,E,C]2 [C,G,C]2 [C,G,]2 | %2
 [B,,G,]2 [G,,G,]2 [D,F,D]2 [D,F,]2 | [G,D]6 z2 | [G,,G,]3 [G,,G,] [G,,G,]2 [G,,G,]2 | %5
 [C,E,C]2 [C,E,C]2 [C,G,C]2 [C,G,]2 | [D,G,B,]2 [D,G,B,]2 [D,G,D]2 [D,CD]2 | [G,,G,]6 z2 | %8
 .[D,D]2 .[D,D]2 [D,D]2 z2 | .[G,DG]2 .[G,DG]2 [G,B,G]2 z2 | [CG]2 [B,DG]2 [A,DF]2 [G,DG]2 | %11
 [D,D]6 z2 | [G,D]3 [G,C] [G,E]2 [G,D]2 | [C,C]2 [C,C]2 C,2 C,2 | D,2 D,2 D,2 D,2 | G,,6 z2 |] %16

